X:138
T: Fuchs im Loche
N: A0504
O: Europa, Mitteleuropa, Deutschland
N: Hainhofers Lautenbuch 1603.
R: Romanze, Ballade, Lied, Kinderlied
M: 4/4
L: 1/8
K: G
d2 | BcBAG2d2 | BcBAG2
d2 | e2d2c2B2 | A2A2A2z2 |
A2AAF2D2 | d2ddB2
d2 | B2G2AGAF | G4z2

